icons/1_Primary/Buhl.svg

<svg xmlns="http://www.w3.org/2000/svg" width="1024" height="1024" fill="none">
   <g clip-path="url(#a)">
      <path fill="#728DBE" d="M512 1024c282.77 0 512-229.23 512-512S794.77 0 512 0 0 229.23 0 512s229.23 512 512 512Z"/>
      <path fill="#fff" d="M252.75 438.19h-30.63c-2.18 0-3.27 1-3.27 3v31c0 2.07 1.09 3 3.27 3h30.62c2.18 0 3.27-1 3.27-3v-31a2.88 2.88 0 0 0-.926-2.273 2.874 2.874 0 0 0-2.344-.727h.01ZM406.33 454a48.122 48.122 0 0 0-22.55-14.78 114.08 114.08 0 0 0-34.44-4.52 119.039 119.039 0 0 0-18 1.32 95.533 95.533 0 0 1-11.55 1.32c-1.747 0-2.62-.773-2.62-2.32V369.3a2.925 2.925 0 0 0-.77-2.45 2.821 2.821 0 0 0-2.4-.85h-24.43c-2.17 0-3.15 1.06-3.15 4.37v240.35c0 .44 1 1.54 2.83 2.21a213.553 213.553 0 0 0 24.1 5.07 205.549 205.549 0 0 0 29.87 2 112.36 112.36 0 0 0 39.09-5.86 51.002 51.002 0 0 0 24.19-18.31 76.937 76.937 0 0 0 12.32-31.27 242.618 242.618 0 0 0 3.49-44.68 173.35 173.35 0 0 0-3.7-39.17A62.26 62.26 0 0 0 406.33 454Zm-17.59 104a53.8 53.8 0 0 1-6.43 22.29 26.923 26.923 0 0 1-14.38 11.8 78.319 78.319 0 0 1-25.18 3.31c-3.6 0-7.82-.22-12.54-.55a44.971 44.971 0 0 1-10.9-1.88 3.29 3.29 0 0 1-2.29-3.64v-122a4.521 4.521 0 0 1 2.62-4.74 90.149 90.149 0 0 1 10.25-2 103.383 103.383 0 0 1 15-1 76.829 76.829 0 0 1 21.91 2.65 25.41 25.41 0 0 1 14 9.93 48.368 48.368 0 0 1 7.25 19.8 187.606 187.606 0 0 1 2.07 31.34 315.406 315.406 0 0 1-1.31 34.64l-.07.05ZM577.9 440.39h-24.31c-2.18 0-3.16 1.09-3.16 3.27v144.49c0 1.75-1.09 2.93-3.16 3.6a88.511 88.511 0 0 1-12.32 2c-4.58.44-9.37.65-14.28.65a89.44 89.44 0 0 1-19.84-1.86 22.606 22.606 0 0 1-18.42-18.85 88.666 88.666 0 0 1-1.75-19.4V443.62a2.853 2.853 0 0 0-3.16-3.27h-24.29c-2.18 0-3.16 1.09-3.16 3.27v114a121.983 121.983 0 0 0 3.16 30.19 38.499 38.499 0 0 0 11.23 19.07A46.673 46.673 0 0 0 486.23 617a171.212 171.212 0 0 0 34.89 3c3.81 0 8.18-.22 13-.55 4.82-.33 9.77-.87 14.93-1.52s10.25-1.42 15.26-2.29c5.01-.87 9.7-1.75 14-2.62 2.18-.44 3.16-1.52 3.16-3.27V443.62a3.152 3.152 0 0 0-3.5-3.27l-.07.04Zm224-74.4h-24.44c-2.18 0-3.27 1.1-3.27 3.42v243.45a2.996 2.996 0 0 0 .8 2.52 2.936 2.936 0 0 0 2.47.9h24.43c2.18 0 3.26-1.1 3.26-3.42V369.41c.01-2.31-1.07-3.41-3.26-3.41l.01-.01ZM252.75 574.21h-30.63c-2.18 0-3.27 1-3.27 3v31c0 2.07 1.09 3 3.27 3h30.62c2.18 0 3.27-1 3.27-3v-31a2.88 2.88 0 0 0-.926-2.273 2.874 2.874 0 0 0-2.344-.727h.01Zm487.44-108.68a41.458 41.458 0 0 0-10.25-19.07 38.924 38.924 0 0 0-18.57-9.69 126.297 126.297 0 0 0-27.9-2.77c-2.62 0-5.45.11-8.79.33-3.34.22-6.64.55-9.92 1l-9.76 1.31c-3.16.44-6.11.77-8.61 1-1.75 0-2.83-.55-3.26-1.54v-66.69a2.997 2.997 0 0 0-.8-2.52 2.927 2.927 0 0 0-2.51-.86h-24.65a2.138 2.138 0 0 0-1.2.22 2.931 2.931 0 0 0-2 3.2v1.07c0 .66-.11 1.32-.11 2.21l.11 2.65v237.44a2.996 2.996 0 0 0 .8 2.52 2.918 2.918 0 0 0 2.46.9h24.47c2.18 0 3.27-1.1 3.27-3.42V464.29a4.227 4.227 0 0 1 2.93-2.42 133.875 133.875 0 0 1 29.75-2.76 78.17 78.17 0 0 1 18.76 1.89 21.505 21.505 0 0 1 11.23 6.51 26.664 26.664 0 0 1 5.45 12.58 76.463 76.463 0 0 1 1.42 16.55v116.07c0 2.32 1.09 3.42 3.16 3.42H740c2.18 0 3.16-1.1 3.16-3.42V496.32a117.513 117.513 0 0 0-2.93-30.79h-.04Z"/>
   </g>
   <defs>
      <clipPath id="a">
         <path fill="#fff" d="M0 0h1024v1024H0z"/>
      </clipPath>
   </defs>
</svg>

<svg width="1024" height="1024" viewBox="0 0 1024 1024" fill="none" xmlns="http://www.w3.org/2000/svg">
<g clip-path="url(#clip0_2_1746)">
<path d="M512 1024C794.77 1024 1024 794.77 1024 512C1024 229.23 794.77 0 512 0C229.23 0 0 229.23 0 512C0 794.77 229.23 1024 512 1024Z" fill="#728DBE"/>
<path d="M252.75 438.19H222.12C219.94 438.19 218.85 439.19 218.85 441.19V472.19C218.85 474.26 219.94 475.19 222.12 475.19H252.74C254.92 475.19 256.01 474.19 256.01 472.19V441.19C256.033 440.766 255.962 440.343 255.802 439.949C255.642 439.556 255.397 439.204 255.084 438.917C254.771 438.63 254.399 438.416 253.993 438.29C253.588 438.164 253.16 438.13 252.74 438.19H252.75ZM406.33 454C400.375 447.025 392.551 441.897 383.78 439.22C372.598 435.964 360.983 434.44 349.34 434.7C343.315 434.684 337.298 435.125 331.34 436.02C327.52 436.694 323.663 437.135 319.79 437.34C318.043 437.34 317.17 436.567 317.17 435.02V369.3C317.236 368.86 317.201 368.411 317.067 367.986C316.934 367.562 316.706 367.173 316.4 366.85C316.094 366.531 315.717 366.288 315.301 366.14C314.884 365.992 314.438 365.944 314 366H289.57C287.4 366 286.42 367.06 286.42 370.37V610.72C286.42 611.16 287.42 612.26 289.25 612.93C297.179 615.082 305.225 616.775 313.35 618C323.244 619.392 333.228 620.06 343.22 620C356.493 620.372 369.728 618.388 382.31 614.14C392.044 610.632 400.48 604.246 406.5 595.83C412.861 586.442 417.068 575.764 418.82 564.56C421.359 549.806 422.528 534.849 422.31 519.88C422.567 506.725 421.326 493.584 418.61 480.71C416.707 470.954 412.497 461.795 406.33 454ZM388.74 558C388.243 565.809 386.049 573.416 382.31 580.29C379.071 585.807 373.973 589.99 367.93 592.09C359.772 594.556 351.267 595.674 342.75 595.4C339.15 595.4 334.93 595.18 330.21 594.85C326.513 594.674 322.852 594.043 319.31 592.97C318.555 592.739 317.908 592.244 317.488 591.576C317.067 590.908 316.901 590.111 317.02 589.33V467.33C316.886 466.363 317.069 465.379 317.541 464.524C318.013 463.67 318.75 462.991 319.64 462.59C323.015 461.726 326.437 461.058 329.89 460.59C334.859 459.893 339.872 459.559 344.89 459.59C352.282 459.414 359.662 460.307 366.8 462.24C372.477 463.826 377.426 467.336 380.8 472.17C384.643 478.156 387.119 484.917 388.05 491.97C389.615 502.34 390.307 512.824 390.12 523.31C390.319 534.872 389.881 546.436 388.81 557.95L388.74 558ZM577.9 440.39H553.59C551.41 440.39 550.43 441.48 550.43 443.66V588.15C550.43 589.9 549.34 591.08 547.27 591.75C543.215 592.706 539.098 593.374 534.95 593.75C530.37 594.19 525.58 594.4 520.67 594.4C514.008 594.521 507.353 593.897 500.83 592.54C496.174 591.718 491.893 589.458 488.589 586.076C485.285 582.695 483.124 578.363 482.41 573.69C481.116 567.307 480.529 560.801 480.66 554.29V443.62C480.728 443.185 480.694 442.739 480.561 442.319C480.428 441.899 480.2 441.516 479.893 441.199C479.587 440.882 479.212 440.64 478.796 440.493C478.381 440.346 477.937 440.297 477.5 440.35H453.21C451.03 440.35 450.05 441.44 450.05 443.62V557.62C449.842 567.776 450.904 577.917 453.21 587.81C455.006 595.129 458.911 601.759 464.44 606.88C470.696 612.097 478.208 615.586 486.23 617C497.727 619.19 509.418 620.195 521.12 620C524.93 620 529.3 619.78 534.12 619.45C538.94 619.12 543.89 618.58 549.05 617.93C554.21 617.28 559.3 616.51 564.31 615.64C569.32 614.77 574.01 613.89 578.31 613.02C580.49 612.58 581.47 611.5 581.47 609.75V443.62C581.49 443.165 581.411 442.711 581.239 442.29C581.067 441.868 580.806 441.489 580.473 441.178C580.141 440.868 579.744 440.633 579.312 440.49C578.88 440.347 578.422 440.299 577.97 440.35L577.9 440.39ZM801.9 365.99H777.46C775.28 365.99 774.19 367.09 774.19 369.41V612.86C774.122 613.313 774.158 613.776 774.297 614.213C774.436 614.65 774.673 615.049 774.99 615.38C775.303 615.712 775.689 615.966 776.118 616.123C776.547 616.279 777.006 616.333 777.46 616.28H801.89C804.07 616.28 805.15 615.18 805.15 612.86V369.41C805.16 367.1 804.08 366 801.89 366L801.9 365.99ZM252.75 574.21H222.12C219.94 574.21 218.85 575.21 218.85 577.21V608.21C218.85 610.28 219.94 611.21 222.12 611.21H252.74C254.92 611.21 256.01 610.21 256.01 608.21V577.21C256.033 576.786 255.962 576.363 255.802 575.969C255.642 575.576 255.397 575.224 255.084 574.937C254.771 574.65 254.399 574.436 253.993 574.31C253.588 574.184 253.16 574.15 252.74 574.21H252.75ZM740.19 465.53C738.523 458.378 734.985 451.796 729.94 446.46C724.751 441.594 718.329 438.242 711.37 436.77C702.201 434.814 692.844 433.885 683.47 434C680.85 434 678.02 434.11 674.68 434.33C671.34 434.55 668.04 434.88 664.76 435.33L655 436.64C651.84 437.08 648.89 437.41 646.39 437.64C644.64 437.64 643.56 437.09 643.13 436.1V369.41C643.198 368.957 643.161 368.494 643.022 368.057C642.884 367.62 642.647 367.221 642.33 366.89C642.008 366.559 641.614 366.309 641.178 366.16C640.741 366.01 640.276 365.966 639.82 366.03H615.17C614.757 365.985 614.34 366.062 613.97 366.25C613.313 366.462 612.752 366.9 612.386 367.485C612.02 368.071 611.872 368.767 611.97 369.45V370.52C611.97 371.18 611.86 371.84 611.86 372.73L611.97 375.38V612.82C611.902 613.273 611.938 613.736 612.077 614.173C612.216 614.61 612.453 615.009 612.77 615.34C613.082 615.671 613.466 615.924 613.893 616.08C614.32 616.236 614.778 616.291 615.23 616.24H639.7C641.88 616.24 642.97 615.14 642.97 612.82V464.29C643.235 463.686 643.639 463.153 644.148 462.732C644.656 462.312 645.256 462.017 645.9 461.87C655.682 459.843 665.661 458.917 675.65 459.11C681.956 458.981 688.255 459.615 694.41 461C698.734 461.961 702.656 464.235 705.64 467.51C708.522 471.157 710.401 475.493 711.09 480.09C712.163 485.539 712.639 491.088 712.51 496.64V612.71C712.51 615.03 713.6 616.13 715.67 616.13H740C742.18 616.13 743.16 615.03 743.16 612.71V496.32C743.544 485.972 742.559 475.619 740.23 465.53H740.19Z" fill="white"/>
</g>
<defs>
<clipPath id="clip0_2_1746">
<rect width="1024" height="1024" fill="white"/>
</clipPath>
</defs>
</svg>
